X: 180
T: Haide Vruta Mea
O: Romania
M: 2/4
L: 1/8
Q: 1/4=200
K: Em
|:eBeB-|B2AG |AGAG-|G2FE|\
  DDDD |EFGF |AG3- |G4  |
  eBeB-|B2AG |AGAG-|G2FE|\
  AAAA |GEF2 |E4-  |E4  :|
|:B3B  |G2A2 |B4   |G4  |\
  A3A  |D2F2 |G4-  |G4  |
  B3B  |G2A2 |B4   |G4  |\
  B3A  |G3F  |E4-  |E4  :|
|:D4   |D2F2 |G4   |G4  |\
  D4   |D2F2 |G4-  |G4  |
  D4   |D2F2 |G4   |G4  |\
  B3A  |G2F2 |E4-  |E4  :|



